X:1
T:In Glory to Appear
T:In Glory to Appear
T:Margaret Coote Browne, 1901
T:Public Domain Courtesy of the Cyber Hymnal™
T:Public Domain Courtesy of the Cyber Hymnal™
C:Margaret Coote Browne, 1901
Z:Public Domain
Z:Courtesy of the Cyber Hymnal™
%%score ( 1 2 ) ( 3 4 ) 5
L:1/8
Q:1/4=110
M:4/4
K:F
V:1 treble 
V:2 treble 
V:3 treble 
V:4 treble 
V:5 bass 
V:1
 C2 | A3 F E>G F>D | C4 z2 (3CFA | c4 G2 (3CEG | c4 A2 C2 | A3 F E>G F>D | C4 z2 FF | %7
 G3 A G>E F>D | G4 z2 C2 | A3 F E>G F>D | C4 z2 (3CFA | c4 G2 (3CEG | c4 A2 C2 | A3 F E>G F>D | %14
 C4 z2 F2 | G3 G A>G A>=B | c4 z2 x2 ||!f!"^Refrain" (3BAG | A2 A2 A2 A2 | B2 E2 z2 (3EDC | %20
 B2 B2 =B2 B2 | c4 z2!ff! (3cde | f2 [cf]2 [Bf]2 [=Bf]2 | [cf]2 F2 z2 (3FG^G | %24
 A2 B2 !fermata!G3 F | F4 z2 (3CFA | [CFc]2 [CFc]2 [D=Bd]2 [E_Be]2 | %27
 [FAcf]2 [A,CF]2 [=B,FG]2 [B,F^G]2 | [CFA]2 [DFB]2 [B,EG]3 F | [A,CF]6 |] %30
V:2
 C2 | x8 | x8 | x8 | x8 | x8 | x8 | x8 | x8 | x8 | x8 | x8 | x8 | x8 | x8 | x8 | x8 || x2 | x8 | %19
 x8 | x8 | x8 | x8 | x8 | x8 | x8 | x8 | x8 | x8 | x6 |] %30
V:3
 z2 | z2 [A,CF]>[A,CF] [A,CF]2 [B,DF]2 | z2 [A,CF]>[A,CF] [A,CF]2 (3CFA | %3
 z2 [CE]>[CE] [CEG]2 (3CEG | z2 [CF]>[CF] [CFA]2 C2 | z2 [CFA]>[CFA] [CFA]2 [DFB]2 | %6
 z2 [CFA]>[CFA] [CFA]2 [CF][CF] | [CEG]2 [CEG]>A [CEG]2 [=B,DG]2 | [CEG]>C C>C C>C E2 | %9
 z2 [A,CF]>[A,CF] [A,CF]2 [B,DF]2 | z2 [A,CF]>[A,CF] [A,CF]2 (3CFA | z2 [CE]>[CE] [CEG]2 (3CEG | %12
 z2 [CF]>[CF] [CFA]2 C2 | z2 [CFA]>[CFA] [CFA]2 [DFB]2 | z2 [CFA]>[CFA] [CFA]2 [CF]2 | %15
 [CEG]2 [CEG]>[CEG] [=B,FA]2 [DFG=B]2 | c4 [CE]2 [DF]2 || (3BAG | [CFA]2 [CFA]2 [CFA]2 [C_EA]2 | %19
 [CEB]2 [CE]2 z2 (3EDC | [CEB]2 [CEB]2 [DF=B]2 [DFB]2 | [CFc]2 [CFc]2 [CEBc]2 (3cde | %22
 [FAf]2 [FAcf]2 [FBf]2 [^G=Bf]2 | [FAcf]2 F2 F2 (3FG^G | [CFA]2 [DFB]2 !fermata![B,CEG]3 F | %25
 [A,CF]4 z2 x2 | x8 | x8 | x8 | x6 |] %30
V:4
 x2 | x8 | x8 | c4 x4 | c4 x4 | x8 | x8 | x8 | x8 | x8 | x8 | c4 x4 | c4 x4 | x8 | x8 | x8 | %16
 [EG]2 x6 || [CE]2 | x8 | x8 | x8 | x6 [GB]2 | x8 | x4 D4 | x8 | x8 | x8 | x8 | x8 | x6 |] %30
V:5
 z2 | [F,,F,]4 z4 | [F,,F,]4 z4 | [C,,C,]2 [C,E,G,B,]>[C,E,G,B,] [C,E,G,B,]2 [C,E,G,B,]2 | %4
 [F,,F,]2 [C,F,A,]>[C,F,A,] [C,F,A,]2 C,2 | [F,,F,]4 z4 | [F,,F,]4 z2 [A,,A,]2 | %7
 [G,,G,]4 [G,,G,]2 [G,,,G,,]2 | [C,,C,]4 z2 C,2 | [F,,F,]4 z4 | [F,,F,]4 z4 | %11
 [C,,C,]2 [C,E,G,B,]>[C,E,G,B,] [C,E,G,B,]2 [C,E,G,B,]2 | %12
 [F,,F,]2 [C,F,A,]>[C,F,A,] [C,F,A,]2 C,2 | [F,,F,]4 z4 | [F,,F,]4 z2 [A,,A,]2 | %15
 [G,,G,]4 [G,,G,]2 [G,,G,]2 | [C,C]2 [B,,B,]2 [A,,A,]2 x2 || [G,,G,]2 | %18
 [F,,F,]2 [C,,C,]2 [F,,F,]2 [^F,,^F,]2 | [G,,G,]2 [C,,C,]2 [G,,G,]2 [C,,C,]2 | %20
 [G,,G,]2 [G,,G,]2 [^G,,^G,]2 [G,,G,]2 | [A,,A,]2 [A,,A,]2 [G,,G,]2 [C,,C,]2 | %22
 [D,,D,]2 [_E,,_E,]2 [D,,D,]2 [_D,,_D,]2 | [C,,C,]2 [F,,F,]2 [=B,,,=B,,]4 | %24
 [C,,C,]2 [C,,C,]2 !fermata![C,,C,]4 | [F,,F,]2 [C,,C,]2 [A,,,F,,]2 z2 | %26
 [A,,A,]2 [A,,A,]2 [^G,,^G,]2 [=G,,=G,]2 | [F,,F,]2 [_E,,_E,]2 [D,,D,]2 [_D,,_D,]2 | %28
 [C,,C,]4 [C,,C,]4 | [F,,,F,,]6 |] %30

